packages/sources/assets/src/assets/power-pay.svg

<svg width="58" height="40" viewBox="0 0 58 40" fill="none" xmlns="http://www.w3.org/2000/svg">
<rect x="0.5" y="0.5" width="57" height="39" rx="3.5" fill="white" stroke="#F3F3F3"/>
<path fill-rule="evenodd" clip-rule="evenodd" d="M5.44901 16.1125H3V22.6741H4.09137V20.5653H5.32496C6.69137 20.5653 7.80937 19.7966 7.80937 18.3247V18.3061C7.80937 16.9842 6.90439 16.1125 5.44901 16.1125ZM6.70014 18.3528C6.70014 19.0371 6.18547 19.5246 5.36036 19.5246H4.09137V17.1625H5.36036C6.1767 17.1625 6.70014 17.5656 6.70014 18.3339V18.3528Z" fill="#DCA126"/>
<path d="M15.6448 16.1125H16.8251L18.3068 20.9775L19.833 16.0936H20.7558L22.2823 20.9775L23.7643 16.1125H24.9089L22.7525 22.7211H21.803L20.2768 18.006L18.7504 22.7211H17.81L15.6448 16.1125Z" fill="#DCA126"/>
<path d="M26.0269 16.1125H30.6324V17.1437H27.1183V18.8495H30.233V19.8806H27.1183V21.643H30.6765V22.6741H26.0269V16.1125Z" fill="#DCA126"/>
<path fill-rule="evenodd" clip-rule="evenodd" d="M34.7407 16.1125H31.9721V22.6741H33.0635V20.3872H34.4299L35.9564 22.6741H37.252L35.5745 20.1903C36.4354 19.9279 37.0478 19.281 37.0478 18.2029V18.1844C37.0478 17.6126 36.8614 17.1248 36.5331 16.7687C36.1337 16.3564 35.5216 16.1125 34.7407 16.1125ZM35.9385 18.2688C35.9385 18.9342 35.4417 19.3654 34.6608 19.3654H33.0635V17.1625H34.652C35.4593 17.1625 35.9385 17.547 35.9385 18.2499V18.2688Z" fill="#DCA126"/>
<path d="M13.9457 16.7155L13.354 17.5583C13.7822 17.9878 14.1371 18.7065 14.1371 19.3935V19.412C14.1371 20.687 13.1425 21.8154 11.9089 21.8154C10.6756 21.8154 9.66572 20.6685 9.66572 19.3935V19.375C9.66572 18.6863 9.96675 18.0282 10.3918 17.6033L9.8615 16.726C9.1075 17.3518 8.65234 18.3214 8.65234 19.3935V19.412C8.65234 21.2588 9.98336 22.787 11.8914 22.787C13.7991 22.787 15.148 21.24 15.148 19.3935V19.375C15.148 18.3012 14.6975 17.3359 13.9457 16.7155Z" fill="#DCA126"/>
<path d="M12.3872 19.0007C12.3872 19.2849 12.1692 19.5156 11.8998 19.5156C11.6311 19.5156 11.4127 19.2849 11.4127 19.0007V16.5146C11.4127 16.2303 11.6311 16 11.8998 16C12.1692 16 12.3872 16.2303 12.3872 16.5146V19.0007Z" fill="#DCA126"/>
<path d="M9.86148 16.7257C10.0391 16.538 10.326 16.6145 10.5309 16.8309C10.7358 17.0473 10.5697 17.4156 10.3918 17.6032C10.2142 17.7908 10.0845 17.7194 9.87965 17.503C9.67478 17.2865 9.68386 16.9133 9.86148 16.7257Z" fill="#DCA126"/>
<path d="M13.9457 16.7154C13.7681 16.5278 13.4699 16.6148 13.265 16.8313C13.0598 17.0477 13.176 17.3703 13.354 17.5583C13.5316 17.7462 13.7111 17.7197 13.9159 17.5027C14.1208 17.2869 14.1233 16.9027 13.9457 16.7154Z" fill="#DCA126"/>
<path fill-rule="evenodd" clip-rule="evenodd" d="M40.5609 16.047H38.1122V22.6069H39.2036V20.4984H40.4366C41.803 20.4984 42.9206 19.73 42.9206 18.2588V18.2399C42.9206 16.9186 42.0157 16.047 40.5609 16.047ZM41.8117 18.2866C41.8117 18.9709 41.2971 19.458 40.4719 19.458H39.2036V17.0966H40.4719C41.2883 17.0966 41.8117 17.4997 41.8117 18.2681V18.2866Z" fill="#467BA8"/>
<path fill-rule="evenodd" clip-rule="evenodd" d="M46.6302 16H45.6187L42.8865 22.6069H44.0042L44.6429 21.0232H47.5793L48.2093 22.6069H49.3624L46.6302 16ZM46.1067 17.3776L47.1803 20.0017H45.042L46.1067 17.3776Z" fill="#467BA8"/>
<path d="M51.2892 20.0206L48.823 16.047H50.118L51.8481 18.9428L53.6045 16.047H54.8556L52.389 19.9924V22.6069H51.2892V20.0206Z" fill="#467BA8"/>
</svg>

<svg width="58" height="40" fill="none" xmlns="http://www.w3.org/2000/svg"><rect x=".5" y=".5" width="57" height="39" rx="3.5" fill="#fff" stroke="#F3F3F3"/><path fill-rule="evenodd" clip-rule="evenodd" d="M5.449 16.113H3v6.561h1.091v-2.109h1.234c1.366 0 2.484-.768 2.484-2.24v-.019c0-1.322-.905-2.194-2.36-2.194Zm1.251 2.24c0 .684-.515 1.172-1.34 1.172H4.091v-2.362h1.27c.816 0 1.34.403 1.34 1.17v.02Z" fill="#DCA126"/><path d="M15.645 16.113h1.18l1.482 4.864 1.526-4.883h.923l1.526 4.883 1.482-4.864h1.145l-2.156 6.608h-.95l-1.526-4.715-1.527 4.715h-.94l-2.165-6.608m10.382 0h4.605v1.03h-3.514v1.706h3.115v1.032h-3.115v1.762h3.559v1.031h-4.65v-6.561" fill="#DCA126"/><path fill-rule="evenodd" clip-rule="evenodd" d="M34.74 16.113h-2.768v6.561h1.091v-2.287h1.367l1.526 2.287h1.296l-1.678-2.484c.861-.262 1.474-.909 1.474-1.987v-.019c0-.571-.187-1.06-.515-1.415-.4-.413-1.011-.656-1.792-.656Zm1.198 2.156c0 .665-.496 1.096-1.277 1.096h-1.598v-2.202h1.589c.807 0 1.286.384 1.286 1.087v.019Z" fill="#DCA126"/><path d="m13.946 16.715-.592.843c.428.43.783 1.148.783 1.835v.019c0 1.275-.995 2.403-2.228 2.403s-2.243-1.146-2.243-2.422v-.018c0-.689.3-1.347.726-1.772l-.53-.877c-.755.626-1.21 1.595-1.21 2.668v.018c0 1.847 1.331 3.375 3.24 3.375 1.907 0 3.256-1.547 3.256-3.393v-.019c0-1.074-.45-2.04-1.202-2.66" fill="#DCA126"/><path d="M12.387 19a.502.502 0 0 1-.487.516.502.502 0 0 1-.487-.515v-2.486c0-.285.218-.515.487-.515a.5.5 0 0 1 .487.515V19m-2.526-2.274c.178-.188.465-.111.67.105.205.216.039.585-.14.772-.177.188-.306.116-.511-.1-.205-.216-.196-.59-.019-.777m4.085-.011c-.178-.187-.476-.1-.681.116-.205.217-.089.54.089.727.178.188.357.162.562-.055.205-.216.207-.6.03-.788" fill="#DCA126"/><path fill-rule="evenodd" clip-rule="evenodd" d="M40.56 16.047h-2.448v6.56h1.092v-2.109h1.233c1.366 0 2.484-.768 2.484-2.24v-.018c0-1.321-.905-2.193-2.36-2.193Zm1.252 2.24c0 .684-.515 1.171-1.34 1.171h-1.268v-2.361h1.268c.816 0 1.34.403 1.34 1.171v.019ZM46.63 16h-1.01l-2.733 6.607h1.118l.639-1.584h2.936l.63 1.584h1.153L46.63 16Zm-.523 1.378 1.073 2.624h-2.138l1.065-2.624Z" fill="#467BA8"/><path d="m51.29 20.02-2.467-3.973h1.295l1.73 2.896 1.757-2.896h1.25l-2.466 3.945v2.615h-1.1V20.02" fill="#467BA8"/></svg>
